X:8
T:Honest Lucky
Z:Jack Campin - http://www.campin.me.uk
S:Blaikie MS (NLS MS.1578) p3, Blaikie #7
M:C|
L:1/8
V:1 midi program 1 74
V:2 midi program 1 46 bass middle = d transpose -24
Q:1/2=112
N:the B,2 in bar 3 is added in paler ink
N:this is really in 3/2, misbarred in the MS
K:Bb
[V:1] B,2|D2F2 B4  |F2GA BAGF|G2 c2 c2[B,2D2]|D2F2 B4  |F2GA BAGF|G2B2 B2 ||
[V:2] z2 |B4   b4  |B4   b4  |e2=e2 f2 z2    |B4   b4  |B2b2 B2d2|e2B2 B2 ||
%
[V:1] f2 |d2c2 B2de|f2gf d2cB|A2 c2 c2 B2    |Bcde f2B2|d2B2 f2B2|d2f2 f2d2|
[V:2] z2 |b2f2 B2b2|a4   b4  |f2 f2 f2 z2    |b4   d'4 |b4   d'4 |b2f2 d2B2|
%
[V:1]     efgf gfed|edcB A2GF|A2 c2 c2 B,2   |D2F2 B4  |F2GA BAGF|G2B2 B2 |]
[V:2]     e2z2 d2B2|b2d2 f2b2|f2 f2 f2 z2    |B2b2 B2b2|B2b2 B2d2|e2B2 B2 |]
W:Transcription (c) Jack Campin 2009, no mirroring or republication without permission

